static/img/gray-bg.svg

<?xml version="1.0" encoding="UTF-8" standalone="no"?>
<svg
   xmlns:dc="http://purl.org/dc/elements/1.1/"
   xmlns:cc="http://creativecommons.org/ns#"
   xmlns:rdf="http://www.w3.org/1999/02/22-rdf-syntax-ns#"
   xmlns:svg="http://www.w3.org/2000/svg"
   xmlns="http://www.w3.org/2000/svg"
   xmlns:sodipodi="http://sodipodi.sourceforge.net/DTD/sodipodi-0.dtd"
   xmlns:inkscape="http://www.inkscape.org/namespaces/inkscape"
   viewBox="0 0 102 102"
   height="102"
   width="102"
   xml:space="preserve"
   id="svg2"
   version="1.1"
   sodipodi:docname="gray-group.svg"
   inkscape:version="0.92.1 r15371"><sodipodi:namedview
     pagecolor="#ffffff"
     bordercolor="#666666"
     borderopacity="1"
     objecttolerance="10"
     gridtolerance="10"
     guidetolerance="10"
     inkscape:pageopacity="0"
     inkscape:pageshadow="2"
     inkscape:window-width="1778"
     inkscape:window-height="849"
     id="namedview19"
     showgrid="false"
     inkscape:zoom="4.627451"
     inkscape:cx="12.960568"
     inkscape:cy="50.308854"
     inkscape:window-x="0"
     inkscape:window-y="0"
     inkscape:window-maximized="0"
     inkscape:current-layer="svg2" /><metadata
     id="metadata8"><rdf:RDF><cc:Work
         rdf:about=""><dc:format>image/svg+xml</dc:format><dc:type
           rdf:resource="http://purl.org/dc/dcmitype/StillImage" /><dc:title /></cc:Work></rdf:RDF></metadata><defs
     id="defs6" /><path
     inkscape:connector-curvature="0"
     style="fill:#deddde;fill-opacity:1;fill-rule:nonzero;stroke:none;stroke-width:1.33333325"
     d="M 8.291637,3.0278545 C 7.05297,5.6625344 2.192024,8.5552143 2.192024,8.5552143 V 11.992708 C 4.653357,9.438041 9.470517,5.2465344 16.11585,3.0278545 Z m 10.222653,0 C 10.344957,5.0438544 4.62669,10.320028 2.192024,12.965361 v 2.521493 C 4.773357,11.821521 9.802023,6.5474011 17.442023,6.5474011 h 2.6582 V 3.0278545 Z M 17.442023,7.547401 c -5.949333,0 -10.235546,3.424693 -12.935546,6.582027 -0.342667,1.326666 -1.123893,5.212226 0.134773,9.240226 l 0.0312,0.09173 -0.02733,0.09173 L 2.192,32.678113 V 34.1 H 20.100223 V 7.5472677 Z M 3.568984,15.287628 c -0.552,0.727999 -1.00496,1.404706 -1.37696,1.998053 v 12.826173 l 1.78516,-6.63868 C 2.98785,20.234507 3.23565,17.162294 3.568984,15.287628 Z"
     id="path14" /><path
     inkscape:connector-curvature="0"
     style="fill:#deddde;fill-opacity:1;fill-rule:nonzero;stroke:none;stroke-width:1.33333325"
     d="m 2.192,67.899748 v 2.128906 l 2.48048,9.21484 -0.0312,0.09373 c -1.26,4.029333 -0.474773,7.914907 -0.134773,9.24024 2.699999,3.157334 6.986213,6.58204 12.935546,6.58204 h 2.658146 v -27.25977 z m 0,4.693359 v 12.82812 c 0.372,0.593333 0.82496,1.272 1.37696,2 -0.333333,-1.874667 -0.581133,-4.949453 0.4082,-8.189453 z m 0,14.628907 v 2.519533 C 4.629333,92.388201 10.355226,97.669 18.529893,99.681 h 1.570306 V 96.15952 H 17.442 c -7.64,0 -12.668667,-5.273506 -15.25,-8.937506 z m 0,3.492187 v 3.439453 c 0,0 4.860946,2.890013 6.099613,5.527346 H 16.12364 C 9.474306,97.46232 4.653333,93.2702 2.192,90.714201 Z"
     id="path4501" /><path
     inkscape:connector-curvature="0"
     style="fill:#deddde;fill-opacity:1;fill-rule:nonzero;stroke:none;stroke-width:1.33333325"
     d="M 19.999995,67.899748 V 95.15952 H 81.999972 V 67.899748 Z m 0,28.259772 V 99.681 h 61.999977 v -3.52148 z"
     id="path4513" /><path
     inkscape:connector-curvature="0"
     style="fill:#deddde;fill-opacity:1;fill-rule:nonzero;stroke:none;stroke-width:1.33333325"
     d="M 2.1919999,34 V 68 H 51.645767 V 34 Z"
     id="path4522" /><path
     inkscape:connector-curvature="0"
     style="fill:#deddde;fill-opacity:1;fill-rule:nonzero;stroke:none;stroke-width:1.33333325"
     d="m 81.999996,2.9257745 -61.999977,0.00133 V 6.4466544 H 81.999996 Z M 20.000019,7.4472677 V 34 H 81.999996 V 7.4472677 Z"
     id="path4527" /><path
     inkscape:connector-curvature="0"
     id="path4533"
     d="M 93.708587,3.0278545 C 94.947253,5.6625344 99.8082,8.5552143 99.8082,8.5552143 V 11.992708 C 97.346867,9.438041 92.529707,5.2465344 85.884374,3.0278545 Z m -10.222653,0 C 91.655267,5.0438544 97.373533,10.320028 99.8082,12.965361 v 2.521493 c -2.581333,-3.665333 -7.61,-8.9394529 -15.25,-8.9394529 H 81.9 V 3.0278545 Z M 84.5582,7.547401 c 5.949333,0 10.235547,3.424693 12.935547,6.582027 0.342666,1.326666 1.123893,5.212226 -0.134774,9.240226 l -0.0312,0.09173 0.02733,0.09173 2.45312,9.124999 V 34.1 H 81.9 V 7.5472677 Z m 13.87304,7.740227 c 0.552,0.727999 1.00496,1.404706 1.37696,1.998053 v 12.826173 l -1.78516,-6.63868 c 0.989333,-3.238667 0.741533,-6.31088 0.4082,-8.185546 z"
     style="fill:#deddde;fill-opacity:1;fill-rule:nonzero;stroke:none;stroke-width:1.33333325" /><path
     inkscape:connector-curvature="0"
     id="path4535"
     d="m 99.808199,68.000013 v 2.128906 l -2.48048,9.21484 0.0312,0.09373 c 1.26,4.029333 0.474774,7.914906 0.134774,9.24024 -2.7,3.157333 -6.986214,6.582039 -12.935547,6.582039 H 81.9 V 68 Z m 0,4.69336 v 12.828119 c -0.372,0.593334 -0.82496,1.272 -1.37696,2 0.333334,-1.874666 0.581134,-4.949453 -0.4082,-8.189453 z m 0,14.628906 v 2.519534 c -2.437333,2.646653 -8.163226,7.927453 -16.337893,9.939453 H 81.9 v -3.52148 h 2.6582 c 7.639999,0 12.668666,-5.273507 15.249999,-8.937507 z m 0,3.492187 v 3.439453 c 0,0 -4.860946,2.890013 -6.099613,5.527347 H 85.87656 c 6.649333,-2.21868 11.470306,-6.4108 13.931639,-8.9668 z"
     style="fill:#deddde;fill-opacity:1;fill-rule:nonzero;stroke:none;stroke-width:1.33333325" /><path
     inkscape:connector-curvature="0"
     id="path4537"
     d="M 99.808217,34 V 68 H 51.645767 V 34 Z"
     style="fill:#deddde;fill-opacity:1;fill-rule:nonzero;stroke:none;stroke-width:1.33333325" /><g
     id="g4559"
     transform="matrix(1.3333333,0,0,-1.3333333,233.99999,295)"><path
       inkscape:connector-curvature="0"
       id="path4541"
       d="M 0,26.250001 H 78.75001"
       style="fill:none;stroke:#000000;stroke-width:0.75;stroke-linecap:butt;stroke-linejoin:miter;stroke-miterlimit:4;stroke-dasharray:none;stroke-opacity:1" /><path
       inkscape:connector-curvature="0"
       style="fill:none;stroke:#000000;stroke-width:0.75px;stroke-linecap:butt;stroke-linejoin:miter;stroke-opacity:1"
       d="M 0,52.500001 H 78.75001"
       id="path4543" /><path
       inkscape:connector-curvature="0"
       style="fill:none;stroke:#000000;stroke-width:0.75;stroke-linecap:butt;stroke-linejoin:miter;stroke-miterlimit:4;stroke-dasharray:none;stroke-dashoffset:0;stroke-opacity:1"
       d="M 26.250001,78.75001 V 0"
       id="path4545" /><path
       inkscape:connector-curvature="0"
       id="path4547"
       d="M 52.500005,78.75001 V 0"
       style="fill:none;stroke:#000000;stroke-width:0.75px;stroke-linecap:butt;stroke-linejoin:miter;stroke-opacity:1" /></g></svg>

<svg width="102" height="102" version="1.1" viewBox="0 0 102 102" xml:space="preserve" xmlns="http://www.w3.org/2000/svg"><g fill="#deddde"><path d="m8.2916 3.0279c-1.2387 2.6347-6.0996 5.5274-6.0996 5.5274v3.4375c2.4613-2.5547 7.2785-6.7462 13.924-8.9649zm10.223 0c-8.1693 2.016-13.888 7.2922-16.322 9.9375v2.5215c2.5813-3.6653 7.61-8.9395 15.25-8.9395h2.6582v-3.5195zm-1.0723 4.5195c-5.9493 0-10.236 3.4247-12.936 6.582-0.34267 1.3267-1.1239 5.2122 0.13477 9.2402l0.0312 0.09173-0.02733 0.09173-2.4531 9.125v1.4219h17.908v-26.553zm-13.873 7.7402c-0.552 0.728-1.005 1.4047-1.377 1.9981v12.826l1.7852-6.6387c-0.98933-3.2387-0.74153-6.3109-0.4082-8.1855z"/><path d="m2.192 67.9v2.1289l2.4805 9.2148-0.0312 0.09373c-1.26 4.0293-0.47477 7.9149-0.13477 9.2402 2.7 3.1573 6.9862 6.582 12.936 6.582h2.6581v-27.26zm0 4.6934v12.828c0.372 0.59333 0.82496 1.272 1.377 2-0.33333-1.8747-0.58113-4.9495 0.4082-8.1895zm0 14.629v2.5195c2.4373 2.6467 8.1632 7.9275 16.338 9.9395h1.5703v-3.5215h-2.6582c-7.64 0-12.669-5.2735-15.25-8.9375zm0 3.4922v3.4395s4.8609 2.89 6.0996 5.5273h7.832c-6.6493-2.2187-11.47-6.4108-13.932-8.9668z"/><path d="m20 67.9v27.26h62v-27.26zm0 28.26v3.5215h62v-3.5215z"/><path d="m2.192 34v34h49.454v-34z"/><path d="m82 2.9258-62 0.00133v3.5195h62zm-62 4.5215v26.553h62v-26.553z"/><path d="m93.709 3.0279c1.2387 2.6347 6.0996 5.5274 6.0996 5.5274v3.4375c-2.4613-2.5547-7.2785-6.7462-13.924-8.9649zm-10.223 0c8.1693 2.016 13.888 7.2922 16.322 9.9375v2.5215c-2.5813-3.6653-7.61-8.9395-15.25-8.9395h-2.6582v-3.5195zm1.0723 4.5195c5.9493 0 10.236 3.4247 12.936 6.582 0.34267 1.3267 1.1239 5.2122-0.13477 9.2402l-0.0312 0.09173 0.02733 0.09173 2.4531 9.125v1.4219h-17.908v-26.553zm13.873 7.7402c0.552 0.728 1.005 1.4047 1.377 1.9981v12.826l-1.7852-6.6387c0.98933-3.2387 0.74153-6.3109 0.4082-8.1855z"/><path d="m99.808 68v2.1289l-2.4805 9.2148 0.0312 0.09373c1.26 4.0293 0.47477 7.9149 0.13477 9.2402-2.7 3.1573-6.9862 6.582-12.936 6.582h-2.6581v-27.26zm0 4.6934v12.828c-0.372 0.59333-0.82496 1.272-1.377 2 0.33333-1.8747 0.58113-4.9495-0.4082-8.1895zm0 14.629v2.5195c-2.4373 2.6467-8.1632 7.9275-16.338 9.9395h-1.5703v-3.5215h2.6582c7.64 0 12.669-5.2735 15.25-8.9375zm0 3.4922v3.4395s-4.8609 2.89-6.0996 5.5273h-7.832c6.6493-2.2187 11.47-6.4108 13.932-8.9668z"/><path d="m99.808 34v34h-48.162v-34z"/></g><g transform="matrix(1.3333 0 0 -1.3333 234 295)" fill="none" stroke="#000"><path d="m0 26.25h78.75" stroke-width=".75"/><path d="m0 52.5h78.75" stroke-width=".75px"/><path d="m26.25 78.75v-78.75" stroke-width=".75"/><path d="m52.5 78.75v-78.75" stroke-width=".75px"/></g></svg>
